X:1
T:Follow the Gleam
T:Follow the Gleam
T:Sallie Hume Douglas, 1915
T:Helen Hill Miller, 1920
T:Public Domain Courtesy of the Cyber Hymnal™
T:Public Domain Courtesy of the Cyber Hymnal™
C:Sallie Hume Douglas, 1915
Z:Public Domain
Z:Courtesy of the Cyber Hymnal™
%%score 1 ( 2 3 )
L:1/8
M:3/4
K:G
V:1 treble 
V:2 bass 
V:3 bass 
V:1
 ([Dd][Dd]) | [DBd]2 [^C^A^c]2 [DBd]2 | [Ece]4 [cec']2 | [Bdb]6- | [Bdb]4 ([Bdb][Bdb]) | %5
w: 1.~To~the *|knights in the|days of|old,|* Keeping *|
w: 2.~And *|we who would|serve the|King,|* And *|
 [Bdb]2 [Aca]2 [Fcf]2 | [Dcd]4 [Aca]2 | [GBg]6- | [GBg]2 z2 [DBd][DBd] | [DBd]2 [^C^A^c]2 [DBd]2 | %10
w: watch on the|moun- tain|height,|* Came a|vi- sion of|
w: loy- al- ly|Him o-|bey,|* In the|con- se- crate|
 [Ece]4 [cec']2 | [Bdb]6- | [Bdb]4 [Bdb][Bdb] | [Bdb]2 [Aca]2 [Fcf]2 | [Dcd]4 [Aca]2 | [GBg]6- | %16
w: Ho- ly|Grail|* And a|voice through the|wait- ing|night:|
w: si- lence|know|* That the|chal- lenge still|holds to-|day,|
 [GBg]2 [Ff]2 [=F=f]2 | [Ece]6 | [cec']6 | [cec']2 [Bdb]3 [DBd] | [Bdb]6 | [Bdb]2 [Aca]2 [Dcd]2 | %22
w: * Fol- low,|fol-|low,|fol- low the|gleam;|Ban- ners un-|
w: * Fol- low,|fol-|low,|fol- low the|gleam|Stan- dards of|
 [Aca]6 | [Aca]2 [GBg]2 [DBd]2 | [GBg]2 [Fcf]2 [=Fd=f]2 | [EGce]6 | [cegc']6 | %27
w: furled|o’er all the|world; Fol- low,|fol-|low,|
w: worth|o’er all the|earth; Fol- low,|fol-|low,|
 [cec']2 [Bdb]2 [DBd]2 | [Bdb]4 [Bdb][Bdb] | [Bdb]2 [Aca]2 [Fcf]2 | [Dcd]4 [Aca]2 | ([G-Bg]6 | %32
w: fol- low the|gleam Of the|chal- ice that|is the|Grail.|
w: fol- low the|gleam Of the|Light that shall|bring the|dawn.|
 [Ggbd'g']4) |] %33
w: |
w: |
V:2
 z2 | G,,2 [D,G,B,]2 [D,G,B,]2 | (G,,2 [E,G,C]2) [E,G,C]2 | (G,,2 [D,G,B,]2 [D,G,B,]2 | %4
 D,,2 [D,G,B,]2) [D,G,B,]2 | F,,2 [D,F,D]2 [D,F,D]2 | D,,2 [D,F,C]2 [D,F,C]2 | %7
 (G,,2 [D,G,B,]2 [D,G,B,]2 | D,,2) [D,G,B,]2 [D,G,B,]2 | G,,2 [D,G,B,]2 [D,G,B,]2 | %10
 G,,2 [G,,E,G,C]2 [G,,E,G,C]2 | (G,,2 [D,G,B,]2 [D,G,B,]2 | D,,2) [C,G,B,]2 [D,G,B,]2 | %13
 G,,2 [D,F,C]2 [D,F,C]2 | (D,,2 [D,F,C]2) [D,F,C]2 | (G,,2 B,,2 D,2) | G,2 A,2 [G,B,]2 | %17
 (C,2 [E,G,C]2 [E,G,C]2) | (C,2 [E,G,C]2 [E,G,C]2) | G,,2 [D,G,B,]3 [D,G,B,] | %20
 (G,,2 [D,G,B,]2 [D,G,B,]2) | D,,2 [D,F,C]2 [D,F,C]2 | (D,,2 [D,F,C]2 [D,F,C]2) | %23
 G,,2 [D,G,B,]2 [D,G,B,]2 | [G,,G,]2 [A,,A,]2 [B,,B,]2 | (C,2 [E,G,C]2 [E,G,C]2) | %26
 (C,2 [E,G,C]2 [E,G,C]2) | G,,2 [D,G,B,]2 [D,G,B,]2 | G,,2 [D,G,B,]2 [D,G,B,]2 | %29
 D,,2 [D,F,C]2 [D,F,C]2 | D,,2 [D,F,C]2 [D,F,C]2 | ([G,,G,]2 [D,,D,]2 [B,,,B,,]2 | [G,,,G,,]4) |] %33
V:3
 x2 | G,,2 x4 | x6 | x6 | x6 | F,,2 x4 | D,,2 x4 | x6 | x6 | x6 | x6 | x6 | x6 | x6 | D,,2 x4 | %15
 G,,2 B,,2 D,2 | x2 A,2 x2 | C,2 x4 | x6 | G,,2 x4 | G,,2 x4 | D,,2 x4 | D,,2 x4 | G,,2 x4 | x6 | %25
 C,2 x4 | C,2 x4 | G,,2 x4 | G,,2 x4 | D,,2 x4 | D,,2 x4 | x6 | x4 |] %33

